X:1
T:Title
%%score { ( 1 3 ) | ( 2 4 ) }
L:1/8
M:6/8
K:Bb
V:1 treble nm="Grand Piano"
V:3 treble 
V:2 bass 
V:4 bass 
V:1
 z3 z2[Q:1/4=78] [DF] | [DF]>[DF][DF] AGF | [DB][FA][EG] [DF]2 z/ E/ | [DB]>[DB][DB] d>cB | %4
[M:5/8] [FA][FA][B,=EG] [A,CF]2 |[M:1/8] [A,F] | %6
[M:3/4] [B,DF][F,D] [B,DF][B,DB]/[B,DB]/- [B,DB][B,DB] | [B,GB]<[B,GB] [Gc] [^Fd]2 [Ge] | %8
 d>c Bc- c/B/A |[M:5/8] [DB]-[DB]- [DB]3 |[M:1/8] [DB] |[M:3/4] B>A GF- F/G/A | %12
 B-[EB-] [CB-] [DB]2 B/A/ | G>^F GB- B/A/G |[M:5/8] d-[Gd-][Gd-] [^Fd]2 |[M:1/8] [^Fd] | %16
[M:3/4] [Gc][GB] [EG][Gc]/[GB]/- [GB][EG] | [EG]<[DF] [B,D] [DF]2 B | d>c Bc- c/B/A | %19
[M:5/8] [DB]-[DB]- [DB]3 |] %20
V:2
 z3 z2 [B,,B,] | [B,,B,]>[B,,B,][B,,B,] [F,CE][F,B,E][F,A,] | %2
 [B,,F,][B,,G,][B,,A,] [B,,B,]2 .[F,A,C] | [B,,F,]>[B,,F,][B,,F,] [G,B,D]>[G,B,D][G,B,D] | %4
[M:5/8] [C,C][C,C]C, F,2 |[M:1/8] z/ E/ |[M:3/4] B,,B,, B,,G,/G,/- G,G, | %7
 E,<E, [E,G,] [D,A,]2 [C,C] | [F,B,F]>[F,EF] [F,DF][F,A,E]- [F,A,E]/[E,B,D]/[F,CE] | %9
[M:5/8] [B,,B,]-[B,,B,]- [B,,B,]3 |[M:1/8] [B,,B,] | %11
[M:3/4] [F,CE]>[F,CE] [F,CE][F,A,E]- [F,A,E]/[F,B,E]/[F,CE] | %12
 z G, E, [B,,F,]2[K:treble] [G,G]/-[G,CG]/ | %13
 [G,B,D]>[G,B,D] [G,B,D][G,DG]- [G,DG]/[K:bass][G,CD]/[G,B,D] |[M:5/8] A, z z z2 |[M:1/8] [D,A,] | %16
[M:3/4] [E,E][E,E] [E,B,][E,E]/[E,E]/- [E,E][E,B,] | [B,,B,]<[B,,B,] [B,,F,] [B,,B,]2 [F,B,D] | %18
 [F,B,F]>[F,EF] [F,DF][F,A,E]- [F,A,E]/[F,B,D]/[F,CE] |[M:5/8] [B,,B,]-[B,,B,]- [B,,B,]3 |] %20
V:3
 x6 | x6 | z3 z2 F | x6 |[M:5/8] x5 |[M:1/8] C/ z/ |[M:3/4] x6 | x6 | x6 |[M:5/8] x5 |[M:1/8] x | %11
[M:3/4] x6 | .[B,D]2 z2 z2 | x6 |[M:5/8] ^F z z z2 |[M:1/8] x |[M:3/4] x6 | x6 | x6 |[M:5/8] x5 |] %20
V:4
 x6 | x6 | x6 | x6 |[M:5/8] x5 |[M:1/8] F, |[M:3/4] x6 | x6 | x6 |[M:5/8] x5 |[M:1/8] x | %11
[M:3/4] x6 | B,,4 z[K:treble] .D | x9/2[K:bass] x3/2 |[M:5/8] D,-[D,-B,][D,-B,] [D,A,]2 | %15
[M:1/8] x |[M:3/4] x6 | x6 | x6 |[M:5/8] x5 |] %20

